SVG/maxcdn.svg

<?xml version="1.0" encoding="utf-8"?>
<!-- Generated by IcoMoon.io -->
<!DOCTYPE svg PUBLIC "-//W3C//DTD SVG 1.1//EN" "http://www.w3.org/Graphics/SVG/1.1/DTD/svg11.dtd">
<svg version="1.1" xmlns="http://www.w3.org/2000/svg" xmlns:xlink="http://www.w3.org/1999/xlink" width="14" height="14" viewBox="0 0 14 14">
<path fill="#444444" d="M13.633 6.039l-1.281 5.961h-2.609l1.391-6.5q0.102-0.438-0.117-0.688-0.211-0.258-0.648-0.258h-1.32l-1.594 7.445h-2.609l1.594-7.445h-2.234l-1.594 7.445h-2.609l1.594-7.445-1.195-2.555h9.969q0.789 0 1.48 0.316t1.152 0.887q0.469 0.57 0.633 1.316t0 1.52z"></path>
</svg>

<svg xmlns="http://www.w3.org/2000/svg" viewBox="0 0 14 14"><path d="M13.633 6.04L12.353 12h-2.61l1.39-6.5q.103-.438-.116-.688-.21-.258-.648-.258H9.05L7.454 12h-2.61L6.44 4.553H4.206L2.612 12H.002l1.595-7.446L.402 2h9.97q.788 0 1.48.315t1.15.887q.47.57.634 1.316t0 1.52z" /></svg>
